X:983
T:First Day Of Spring, The
R:reel
C:Tommy Peoples
Z:id:hn-reel-983
M:C|
L:1/8
K:Gdor
d2cA GFDF | G2cG dGcG | AdcA GFDF | Gg (3fga g3a |
bagf dcAg | agfd cAFA | G2cG dGcG |1 AdcA G3c :|2 AdcA G3f ||
|: ~g3a bg~g2 | gbag fdde | fage f2cf | Afag fdcA |
~g3a bg~g2 | afge fdcA | G2cG dGcG |1 AdcA G3f :|2 AdcA G3F ||
|: DG~G2 GdcA | G2cG dGcG | DF~F2 FcAG | F2cF dFcF |
DG~G2 GdcA | G2cG dGcG | afge fdcA |1 FdcA G3F :|2 FdcA G3c ||
P:variations
|: dccA GFDF | G2cG dGcG | AdcA GFDF | Ggfa ~g3a |
bagf dcAg | agfd cAFA | G2cG dGcG |1 AdcA G2Ac :|2 AdcA G3f ||
|: g2dg bg~g2 | gbag fdde | ~f3e f2cf | ~a3g fdcf |
dgga bg~g2 | a2ge fdcA | G2cG dGcG |1 AdcA G3f :|2 AdcA G3F ||
|: DGGF GdcA | G2cG dGcG | DFFE FcAG | F2cF dFcF |
DGGF GdcA | G2cG dGcG | agfe fdcA |1 AdcA G2FG :|2 AdcA G2Ac ||

